public/cloud-icons/azure/networking/on-premises-data-gateway.svg

<?xml version="1.0" encoding="UTF-8" standalone="no"?>
<!-- Generated by Microsoft Visio, SVG Export On-Premises Data Gateway.svg Page-1 -->

<svg
   xmlns:dc="http://purl.org/dc/elements/1.1/"
   xmlns:cc="http://creativecommons.org/ns#"
   xmlns:rdf="http://www.w3.org/1999/02/22-rdf-syntax-ns#"
   xmlns:svg="http://www.w3.org/2000/svg"
   xmlns="http://www.w3.org/2000/svg"
   xmlns:sodipodi="http://sodipodi.sourceforge.net/DTD/sodipodi-0.dtd"
   xmlns:inkscape="http://www.inkscape.org/namespaces/inkscape"
   width="0.78780317in"
   height="0.74808359in"
   viewBox="0 0 56.721753 53.861875"
   xml:space="preserve"
   class="st5"
   version="1.1"
   id="svg37"
   sodipodi:docname="On-Premises Data Gateway.svg"
   style="font-size:12px;overflow:visible;color-interpolation-filters:sRGB;fill:none;fill-rule:evenodd;stroke-linecap:square;stroke-miterlimit:3"
   inkscape:version="0.92.5 (2060ec1f9f, 2020-04-08)"><metadata
   id="metadata41"><rdf:RDF><cc:Work
       rdf:about=""><dc:format>image/svg+xml</dc:format><dc:type
         rdf:resource="http://purl.org/dc/dcmitype/StillImage" /></cc:Work></rdf:RDF></metadata><sodipodi:namedview
   pagecolor="#ffffff"
   bordercolor="#666666"
   borderopacity="1"
   objecttolerance="10"
   gridtolerance="10"
   guidetolerance="10"
   inkscape:pageopacity="0"
   inkscape:pageshadow="2"
   inkscape:window-width="640"
   inkscape:window-height="480"
   id="namedview39"
   showgrid="false"
   inkscape:zoom="1.464549"
   inkscape:cx="37.817857"
   inkscape:cy="35.215153"
   inkscape:window-x="0"
   inkscape:window-y="0"
   inkscape:window-maximized="0"
   inkscape:current-layer="svg37" />
	<style
   type="text/css"
   id="style2">
	<![CDATA[
		.st1 {fill:url(#grad0-5);stroke:none;stroke-linecap:butt;stroke-width:32.975}
		.st2 {fill:#50e6ff;stroke:none;stroke-linecap:butt;stroke-width:32.975}
		.st3 {fill:#0078d4;stroke:none;stroke-linecap:butt;stroke-width:32.975}
		.st4 {fill:#ffffff;stroke:none;stroke-linecap:butt;stroke-width:32.975}
		.st5 {fill:none;fill-rule:evenodd;font-size:12px;overflow:visible;stroke-linecap:square;stroke-miterlimit:3}
	]]>
	</style>

	<defs
   id="Patterns_And_Gradients">
		<linearGradient
   id="grad0-5"
   x1="0"
   y1="96.53841"
   x2="47.549263"
   y2="96.53841"
   gradientTransform="scale(1.1922372,0.83875927)"
   gradientUnits="userSpaceOnUse">
			<stop
   offset="0"
   stop-color="#0078d4"
   stop-opacity="1"
   id="stop4" />
			<stop
   offset="0.82"
   stop-color="#5ea0ef"
   stop-opacity="1"
   id="stop6" />
		</linearGradient>
	</defs>
	<g
   id="g35"
   transform="translate(-32.972646,-32.977464)">
		<title
   id="title10">Page-1</title>
		<g
   id="group18919-1"
   transform="translate(33.0044,-34.0157)">
			<title
   id="title12">On-Premises Data Gateway.18919</title>
			<g
   id="shape18920-2"
   transform="translate(0,-13.9794)">
				<title
   id="title14">path11</title>
				<path
   d="M 56.69,108.36 A 12.7559,12.6597 -180 0 0 45.64,96.2 16.063,15.9418 -180 0 0 29.1,80.98 16.4724,16.3482 -180 0 0 13.35,91.61 15.2441,15.1291 -180 0 0 0,106.14 a 15.4016,15.2854 -180 0 0 15.97,14.69 9.98425,9.90892 -180 0 0 1.38,0 h 25.86 a 2.45669,2.43816 -180 0 0 0.7,0 12.8819,12.7847 -180 0 0 12.78,-12.47 z"
   class="st1"
   id="path16"
   inkscape:connector-curvature="0"
   style="fill:url(#grad0-5);stroke:none;stroke-width:32.97499847;stroke-linecap:butt" />
			</g>
			<g
   id="shape18921-6"
   transform="translate(4.24426,-14.0038)">
				<title
   id="title19">path13</title>
				<path
   d="m 25.58,105.79 a 14.9291,14.8165 -180 1 0 -14.9,15.07 h 14.9 z"
   class="st2"
   id="path21"
   inkscape:connector-curvature="0"
   style="fill:#50e6ff;stroke:none;stroke-width:32.97499847;stroke-linecap:butt" />
			</g>
			<g
   id="shape18922-8"
   transform="translate(22.4495)">
				<title
   id="title24">path15</title>
				<path
   d="m 14.72,113.73 -7.09,7 a 0.314961,0.312584 0 0 1 -0.503937,0 L 0.07,113.73 a 0.377953,0.375101 0 0 1 0.251968,-0.62517 L 4.48,113.1 a 0.346457,0.343843 -180 0 0 0.346458,-0.43762 L 4.83,103.6 a 0.346457,0.343843 0 0 1 0.377952,-0.31259 L 9.58,103.29 a 0.346457,0.343843 0 0 1 0.346457,0.34384 L 9.93,112.67 a 0.346457,0.343843 -180 0 0 0.377953,0.34384 L 14.46,113.01 a 0.38349,0.380596 0 0 1 0.251968,0.71894 z"
   class="st3"
   id="path26"
   inkscape:connector-curvature="0"
   style="fill:#0078d4;stroke:none;stroke-width:32.97499847;stroke-linecap:butt" />
			</g>
			<g
   id="shape18923-10"
   transform="translate(22.4701,-14.035)">
				<title
   id="title29">path17</title>
				<path
   d="m 0.05,110.51 6.96,-6.91 a 0.535433,0.531393 0 0 1 0.72441,0 L 14.7,110.51 a 0.346457,0.343843 0 0 1 -0.251968,0.59391 L 10.29,111.1 a 0.377953,0.375101 -180 0 0 -0.377953,0.3751 L 9.91,120.86 h -5.1 v -9.38 A 0.377953,0.375101 -180 0 0 4.463542,111.07364 L 0.3,111.07 a 0.346457,0.343843 0 0 1 -0.251968,-0.56265 z"
   class="st4"
   id="path31"
   inkscape:connector-curvature="0"
   style="fill:#ffffff;stroke:none;stroke-width:32.97499847;stroke-linecap:butt" />
			</g>
		</g>
	</g>
</svg>

<svg xmlns="http://www.w3.org/2000/svg" xml:space="preserve" width="75.629" height="71.816" style="font-size:12px;overflow:visible;color-interpolation-filters:sRGB;fill-rule:evenodd;stroke-linecap:square;stroke-miterlimit:3" viewBox="0 0 56.722 53.862"><defs><linearGradient id="a" x1="0" x2="47.549" y1="96.538" y2="96.538" gradientTransform="scale(1.19224 .83876)" gradientUnits="userSpaceOnUse"><stop offset="0" stop-color="#0078d4"/><stop offset=".82" stop-color="#5ea0ef"/></linearGradient></defs><g transform="translate(-32.973 -32.977)"><title>Page-1</title><g transform="translate(33.004 -34.016)"><title>On-Premises Data Gateway.18919</title><g transform="translate(0 -13.98)"><title>path11</title><path d="M56.69 108.36A12.756 12.66-180 0 0 45.64 96.2 16.063 15.942-180 0 0 29.1 80.98a16.472 16.348-180 0 0-15.75 10.63A15.244 15.13-180 0 0 0 106.14a15.402 15.285-180 0 0 15.97 14.69 9.984 9.909-180 0 0 1.38 0h25.86a2.457 2.438-180 0 0 .7 0 12.882 12.785-180 0 0 12.78-12.47" style="fill:url(#a);stroke:none;stroke-width:32.97499847;stroke-linecap:butt"/></g><g transform="translate(4.244 -14.004)"><title>path13</title><path d="M25.58 105.79a14.93 14.817-180 1 0-14.9 15.07h14.9z" style="fill:#50e6ff;stroke:none;stroke-width:32.97499847;stroke-linecap:butt"/></g><g transform="translate(22.45)"><title>path15</title><path d="m14.72 113.73-7.09 7a.315.313 0 0 1-.504 0l-7.056-7a.378.375 0 0 1 .252-.625l4.158-.005a.346.344-180 0 0 .346-.438l.004-9.062a.346.344 0 0 1 .378-.313l4.372.003a.346.344 0 0 1 .346.344l.004 9.036a.346.344-180 0 0 .378.344l4.152-.004a.383.38 0 0 1 .252.719z" style="fill:#0078d4;stroke:none;stroke-width:32.97499847;stroke-linecap:butt"/></g><g transform="translate(22.47 -14.035)"><title>path17</title><path d="m.05 110.51 6.96-6.91a.535.531 0 0 1 .724 0l6.966 6.91a.346.344 0 0 1-.252.594l-4.158-.004a.378.375-180 0 0-.378.375l-.002 9.385h-5.1v-9.38a.378.375-180 0 0-.346-.406L.3 111.07a.346.344 0 0 1-.252-.563z" style="fill:#fff;stroke:none;stroke-width:32.97499847;stroke-linecap:butt"/></g></g></g></svg>
